X:41
T:B041-  Bow Bells
Q:1/4=120
L:1/4
M:C|
K:C
GE3/4F/4G3/2A/4B/4|cB/3/c/4A3/2A/2|\
B3/4c/4 d/2G/2 A/2D/2 G3/4^F/4|G4||\
G3/2A/2B3/2c/2|c3g/2f/2|e/2d/2c/2B/2 A/2G/2F/2E/2|\
D3/2C/2C2|| 
M:6/4
L:1/4
c2BA2G|FG3/2E/2Ddc|
B3/2A/2GG3/2A/2 ^F/2G/2|G6|GAGA/2B/2cE|\
F3F3|A3/2B/2Gc/2d/2B3/2c/2|c6|]
